Faba/24x24/actions/bookmark-new.svg

<?xml version="1.0" encoding="UTF-8" standalone="no"?>
<!-- Created with Inkscape (http://www.inkscape.org/) -->

<svg
   xmlns:dc="http://purl.org/dc/elements/1.1/"
   xmlns:cc="http://creativecommons.org/ns#"
   xmlns:rdf="http://www.w3.org/1999/02/22-rdf-syntax-ns#"
   xmlns:svg="http://www.w3.org/2000/svg"
   xmlns="http://www.w3.org/2000/svg"
   xmlns:sodipodi="http://sodipodi.sourceforge.net/DTD/sodipodi-0.dtd"
   xmlns:inkscape="http://www.inkscape.org/namespaces/inkscape"
   width="24"
   height="24"
   id="svg3495"
   version="1.1"
   inkscape:version="0.48.4 r9939"
   sodipodi:docname="bookmark-new.svg">
  <defs
     id="defs3497">
    <clipPath
       clipPathUnits="userSpaceOnUse"
       id="clipPath3669">
      <path
         inkscape:connector-curvature="0"
         d="M 0,96 96,96 96,0 0,0 0,96 z"
         id="path3671" />
    </clipPath>
  </defs>
  <sodipodi:namedview
     id="base"
     pagecolor="#ffffff"
     bordercolor="#666666"
     borderopacity="1.0"
     inkscape:pageopacity="0.0"
     inkscape:pageshadow="2"
     inkscape:zoom="1"
     inkscape:cx="16.026456"
     inkscape:cy="9.2773571"
     inkscape:current-layer="layer1"
     showgrid="false"
     inkscape:grid-bbox="true"
     inkscape:document-units="px"
     inkscape:window-width="1364"
     inkscape:window-height="701"
     inkscape:window-x="0"
     inkscape:window-y="27"
     inkscape:window-maximized="1"
     inkscape:snap-bbox="true"
     inkscape:bbox-paths="true"
     inkscape:bbox-nodes="true"
     inkscape:snap-bbox-edge-midpoints="false"
     showguides="true"
     inkscape:guide-bbox="true">
    <inkscape:grid
       type="xygrid"
       id="grid3512"
       empspacing="4"
       visible="true"
       enabled="true"
       snapvisiblegridlinesonly="true"
       dotted="false" />
  </sodipodi:namedview>
  <metadata
     id="metadata3500">
    <rdf:RDF>
      <cc:Work
         rdf:about="">
        <dc:format>image/svg+xml</dc:format>
        <dc:type
           rdf:resource="http://purl.org/dc/dcmitype/StillImage" />
        <dc:title></dc:title>
      </cc:Work>
    </rdf:RDF>
  </metadata>
  <g
     id="layer1"
     inkscape:label="Layer 1"
     inkscape:groupmode="layer"
     transform="translate(1,-25)">
    <g
       id="g3860"
       transform="translate(1,0)">
      <g
         transform="translate(0.691495,18.112698)"
         id="g3852" />
      <rect
         y="43"
         x="14"
         height="2"
         width="6"
         id="rect3856"
         style="color:#000000;fill:#555555;fill-opacity:1;fill-rule:nonzero;stroke:none;stroke-width:2;marker:none;visibility:visible;display:inline;overflow:visible;enable-background:accumulate" />
      <rect
         style="color:#000000;fill:#555555;fill-opacity:1;fill-rule:nonzero;stroke:none;stroke-width:2;marker:none;visibility:visible;display:inline;overflow:visible;enable-background:accumulate"
         id="rect3858"
         width="6"
         height="2"
         x="41"
         y="16"
         transform="matrix(0,1,1,0,0,0)" />
    </g>
    <g
       id="g3879"
       style="opacity:0.1;fill:#ffffff;fill-opacity:1"
       transform="translate(1,-1)">
      <g
         id="g3881"
         transform="translate(0.691495,18.112698)"
         style="fill:#ffffff;fill-opacity:1" />
      <rect
         style="color:#000000;fill:#ffffff;fill-opacity:1;fill-rule:nonzero;stroke:none;stroke-width:2;marker:none;visibility:visible;display:inline;overflow:visible;enable-background:accumulate"
         id="rect3887"
         width="6"
         height="2"
         x="14"
         y="43" />
      <rect
         transform="matrix(0,1,1,0,0,0)"
         y="16"
         x="41"
         height="2"
         width="6"
         id="rect3889"
         style="color:#000000;fill:#ffffff;fill-opacity:1;fill-rule:nonzero;stroke:none;stroke-width:2;marker:none;visibility:visible;display:inline;overflow:visible;enable-background:accumulate" />
    </g>
    <path
       style="font-style:normal;font-variant:normal;font-weight:normal;font-stretch:normal;text-indent:0;text-align:start;text-decoration:none;line-height:normal;letter-spacing:normal;word-spacing:normal;text-transform:none;direction:ltr;block-progression:tb;writing-mode:lr-tb;text-anchor:start;baseline-shift:baseline;color:#000000;fill:#555555;fill-opacity:1;stroke:none;stroke-width:5.35900021;marker:none;visibility:visible;display:inline;overflow:visible;enable-background:accumulate;font-family:sans-serif;-inkscape-font-specification:sans-serif"
       d="M 9.4999994,27.734254 7.5133048,32.88501 1.9999997,33.181641 6.2864989,36.664307 4.8656005,42 6.3963617,41.007568 9.4999994,38.998902 14.134399,42 12.7135,36.664307 17,33.181641 11.486694,32.88501 z"
       id="polygon5-7"
       inkscape:connector-curvature="0"
       sodipodi:nodetypes="cccccccccccc" />
    <path
       sodipodi:nodetypes="cccccccccccc"
       inkscape:connector-curvature="0"
       id="path3850"
       d="M 9.4999994,26.734254 7.5133048,31.88501 1.9999997,32.181641 6.2864989,35.664307 4.8656005,41 6.3963617,40.007568 9.4999994,37.998902 14.134399,41 12.7135,35.664307 17,32.181641 11.486694,31.88501 z"
       style="font-style:normal;font-variant:normal;font-weight:normal;font-stretch:normal;text-indent:0;text-align:start;text-decoration:none;line-height:normal;letter-spacing:normal;word-spacing:normal;text-transform:none;direction:ltr;block-progression:tb;writing-mode:lr-tb;text-anchor:start;baseline-shift:baseline;opacity:0.1;color:#000000;fill:#ffffff;fill-opacity:1;stroke:none;stroke-width:5.35900021;marker:none;visibility:visible;display:inline;overflow:visible;enable-background:accumulate;font-family:sans-serif;-inkscape-font-specification:sans-serif" />
  </g>
</svg>

<svg xmlns="http://www.w3.org/2000/svg" viewBox="0 0 24 24" xmlns:xlink="http://www.w3.org/1999/xlink"><defs><clipPath><path d="m0 96h96v-96h-96v96"/></clipPath></defs><g transform="translate(1-25)" color="#000"><g transform="translate(1)" fill="#555"><path d="m14 43h6v2h-6z" id="0"/><path transform="matrix(0 1 1 0 0 0)" d="m41 16h6v2h-6z" id="1"/></g><g transform="translate(1-1)" opacity=".1" fill="#fff"><use xlink:href="#0"/><use xlink:href="#1"/></g><path d="m9.5 27.734l-1.987 5.151-5.513.297 4.286 3.483-1.421 5.336 1.531-.992 3.104-2.01 4.634 3-1.421-5.336 4.287-3.483-5.513-.297z" fill="#555"/><path d="m9.5 26.734l-1.987 5.151-5.513.297 4.286 3.483-1.421 5.336 1.531-.992 3.104-2.01 4.634 3-1.421-5.336 4.287-3.483-5.513-.297z" opacity=".1" fill="#fff"/></g></svg>
